X:1683
T:Duchess of Gordon's Reel. HSJJ.118
O:england
M:4/4
L:1/8
Q:180
S:HSJ Jackson,Wyresdale,Lancs.1823
R:Reel
A:Lancashire
H:1823
K:A
e|(d/c/B/A/) ac dfBd|ce (d/c/B/A/) GBBe|(d/c/B/A/) ac dfBd|EAAB cAA2:|
|:CEAc DFBc|df (d/c/B/A/) GBBe|(d/c/B/A/) ec fdaf|ecBe cAA2:|]


